svg/cash_lock.svg

<svg xmlns="http://www.w3.org/2000/svg" viewBox="0 0 24 24"><path d="M21.8 15c.6 0 1.2.6 1.2 1.3v3.5c0 .6-.6 1.2-1.3 1.2h-5.5c-.6 0-1.2-.6-1.2-1.3v-3.5c0-.6.6-1.2 1.2-1.2v-1.5c0-1.4 1.4-2.5 2.8-2.5s2.8 1.1 2.8 2.5zm-1.3 0v-1.5c0-.8-.7-1.3-1.5-1.3s-1.5.5-1.5 1.3V15zM2 6h18v3.1L19 9c-.82 0-1.59.2-2.27.54C16.28 9.18 16 8.62 16 8H6c0 1.11-.89 2-2 2v4a2 2 0 0 1 2 2h7.04l-.04.5V18H2zm9 3c1.66 0 3 1.34 3 3s-1.34 3-3 3-3-1.34-3-3 1.34-3 3-3"/></svg>

<?xml version="1.0" encoding="UTF-8"?><!DOCTYPE svg PUBLIC "-//W3C//DTD SVG 1.1//EN" "http://www.w3.org/Graphics/SVG/1.1/DTD/svg11.dtd"><svg xmlns="http://www.w3.org/2000/svg" xmlns:xlink="http://www.w3.org/1999/xlink" version="1.1" id="mdi-cash-lock" width="24" height="24" viewBox="0 0 24 24"><path d="M21.8 15C22.4 15 23 15.6 23 16.3V19.8C23 20.4 22.4 21 21.7 21H16.2C15.6 21 15 20.4 15 19.7V16.2C15 15.6 15.6 15 16.2 15V13.5C16.2 12.1 17.6 11 19 11C20.4 11 21.8 12.1 21.8 13.5V15M20.5 15V13.5C20.5 12.7 19.8 12.2 19 12.2C18.2 12.2 17.5 12.7 17.5 13.5V15H20.5M2 6H20V9.1L19 9C18.18 9 17.41 9.2 16.73 9.54C16.28 9.18 16 8.62 16 8H6C6 9.11 5.11 10 4 10V14C5.11 14 6 14.9 6 16H13.04L13 16.5V18H2V6M11 9C12.66 9 14 10.34 14 12C14 13.66 12.66 15 11 15C9.34 15 8 13.66 8 12C8 10.34 9.34 9 11 9Z" /></svg>
